UI/src/assets/do2logo.svg

<?xml version="1.0" encoding="UTF-8" standalone="no"?>
<svg
   width="102"
   height="110"
   viewBox="0 0 102 110"
   fill="none"
   version="1.1"
   id="svg2"
   sodipodi:docname="do2logoFINAL.svg"
   inkscape:version="1.3.2 (091e20e, 2023-11-25, custom)"
   xmlns:inkscape="http://www.inkscape.org/namespaces/inkscape"
   xmlns:sodipodi="http://sodipodi.sourceforge.net/DTD/sodipodi-0.dtd"
   xmlns="http://www.w3.org/2000/svg"
   xmlns:svg="http://www.w3.org/2000/svg">
  <defs
     id="defs2" />
  <sodipodi:namedview
     id="namedview2"
     pagecolor="#ffffff"
     bordercolor="#000000"
     borderopacity="0.25"
     inkscape:showpageshadow="2"
     inkscape:pageopacity="0.0"
     inkscape:pagecheckerboard="0"
     inkscape:deskcolor="#d1d1d1"
     inkscape:zoom="3.8136364"
     inkscape:cx="51.263409"
     inkscape:cy="38.676996"
     inkscape:window-width="1920"
     inkscape:window-height="1017"
     inkscape:window-x="1912"
     inkscape:window-y="-8"
     inkscape:window-maximized="1"
     inkscape:current-layer="svg2" />
  <path
     d="m 41.1219,57.285 c 0,1.8709 -0.12,5.7832 -2.1029,10.7928 -1.8667,4.716 -9.3446,7 -14.3349,9.1694 -9.0629,3.9398 -12.3978,6.2802 -14.2908,8.661 -3.06852,3.8594 -0.4113,11.6982 1.7163,14.8478 1.979,2.93 7.5061,3.227 12.4151,3.244 4.4399,0.015 11.1088,-5.7652 18.2028,-10.9828 2.4647,-1.8128 3.8608,-3.5037 5.0452,-4.1601 5.2209,-2.8934 16.3297,-0.2017 19.6725,0.7461 3.9376,1.1164 7.8686,3.4801 12.9194,3.4346 5.7475,-0.0519 8.8246,-4.5236 11.1223,-7.4867 3.1299,-4.0361 3.308,-7.0457 4.3472,-13.7449 C 96.3564,68.4399 95.6229,65.144 94.0608,61.5213 90.1077,52.354 82.1338,50.1449 76.23,48.1922 74.2547,47.5389 72.7206,46.815 71.329,45.783 70.0287,44.8187 69.4851,43.3402 69.1305,41.5977 68.0374,36.2267 72.0973,29.5731 72.8222,22.8611 73.5731,15.908 64.0307,9.9992 58.0103,7.707 52.4865,5.60386 44.5166,5.9929 37.3963,6.0942 29.6206,6.20482 25.2612,7.47778 21.0774,9.43965 18.4095,10.6907 14.2895,13.952 10.8918,17.12 8.29174,19.5443 6.82609,25.0553 6.11107,29.245 c -0.42618,2.4973 0.44971,4.8509 1.53945,6.7265 2.75228,4.737 9.13878,7.6215 12.22118,8.7634 4.7757,1.7692 10.1847,1.9208 13.6766,3.219 2.3251,0.8644 3.4103,3.7641 4.0387,6.0855 0.8059,2.9776 -0.3779,7.5405 -1.1976,12.0069 -0.7324,3.9903 -2.9508,8.3105 -3.4265,10.8213 -0.4239,2.2375 -1.8853,4.0785 -4.0589,5.7698 -2.5576,1.9901 -6.0014,2.8336 -7.4543,4.5177 -1.5687,1.8182 -2.1213,3.9903 -1.9225,6.0988 0.0842,0.8935 0.6068,1.3587 1.2966,1.667 0.6898,0.3083 1.6517,0.4277 2.4798,0.3313 4.7992,-0.5587 10.6392,-9.164 19.1577,-14.2117 5.2703,-3.123 18.1257,-2.5929 23.7268,-2.2347 5.306,0.3393 13.0179,1.9417 16.1859,1.5581 1.1744,-0.1422 1.9223,-1.401 2.6878,-2.4583 3.1969,-4.4155 1.7349,-12.772 1.0997,-15.3369 -0.4713,-1.9028 -5.2317,-4.3047 -10.1033,-5.123 -4.9646,-0.8339 0.6299,13.5421 2.7777,22.3591 0.9255,3.7991 0.7415,6.3822 0.6302,7.3629 -0.0517,0.4561 -0.7042,-6.4064 -1.0967,-16.1726 -0.3322,-8.2691 -5.3261,-16.5652 -6.916,-20.3005 -0.1975,-0.4641 -0.9586,-0.4716 -1.4933,-0.0302 -1.4021,1.1578 -2.254,8.9616 -3.6637,18.5335 -0.4697,3.1895 -1.3267,2.8436 -2.8599,-0.7608 -4.3935,-10.3289 -6.6088,-17.1022 -7.006,-15.7337 -1.6146,5.5619 -4.6271,12.7904 -6.7506,15.6102 -2.326,3.0888 -5.6675,3.9162 -5.8188,4.9335 -0.2414,1.6221 4.4375,1.4085 7.6302,1.7879 2.4978,0.2968 5.4042,-1.5089 8.38,-4.3911 C 61.897,68.682 62.168,59.3018 62.3584,46.2924 62.4825,37.8182 67.2926,33.441 70.3082,30.3217 70.8376,29.7741 66.4577,28.2624 66.2964,27.7354 65.5213,25.2026 67.2319,22.49 63.8953,19.1092 61.6581,16.8424 54.128,14.9771 46.9058,13.3114 39.974,11.7127 31.8676,15.3103 21.0529,17.6118 c -4.3816,0.9325 -5.9506,2.5944 -7.2243,4.3462 -1.332,1.832 -2.1515,4.5599 -1.5023,7.5854 0.3305,1.5405 2.9645,1.7218 5.3423,2.0831 7.3827,1.1215 13.0656,-2.7594 13.5463,-3.8911 0.7388,-1.739 -6.6387,-1.4433 -8.7232,-2.5855 -7.3492,-4.0272 15.195,-5.2667 17.569,-5.4396 7.5303,-0.5486 10.5656,2.3452 13.9404,4.4033 2.8116,1.7146 3.9004,7.4147 2.8975,12.2572 -1.8419,8.8934 -5.447,20.3903 -7.8004,23.262 -0.4399,0.5369 -1.6002,-0.524 -2.2382,-1.3191 -0.6381,-0.795 -0.9971,-1.7927 -1.1553,-6.9868 -0.1583,-5.1942 -0.1051,-14.5546 -0.4166,-19.823 -0.3114,-5.2684 -0.9892,-6.1612 -1.6876,-6.6886 -1.2245,-0.9248 -2.7859,-0.8019 -4.1469,-0.7017 -4.1416,0.3046 -8.7246,3.9484 -13.2403,8.266 -0.9732,0.9305 -1.2066,1.4393 -1.3591,1.9395 -0.1525,0.5002 -0.1574,1.0305 0.1929,1.4289 2.9367,3.3398 11.1035,2.2937 13.5007,4.0108 0.5314,0.3806 0.6126,0.9977 0.5741,0.2522 -0.604,-5.512 -0.2249,-9.4296 0.428,-12.3583 0.1231,-0.5687 0.1968,-1.1597 0.2176,-1.8334"
     stroke="#a5a4b8"
     stroke-width="12"
     stroke-linecap="round"
     id="path1"
     style="display:inline;fill:#a5a4b8;fill-opacity:1;stroke:#e08100;stroke-opacity:1" />
  <path
     d="M24.0011 43.5747V19.6497C24.0011 19.6497 32.4105 17.5905 37.8364 17.9997C41.17 18.251 42.9926 18.8411 46.2364 19.6497C47.9856 20.0857 49.0777 20.0679 50.6835 20.8872C52.4748 21.801 53.265 22.7164 54.6364 24.1872C55.48 25.0918 55.954 25.6153 56.6129 26.6622C58.7129 29.9988 58.4171 32.6234 58.5893 36.5622C58.8101 41.6105 56.6129 49.3497 56.6129 49.3497L51.1776 59.2497L42.2835 68.7372L33.8835 75.3372L26.9658 79.8747L24.0011 81.5247V83.9997H66.0011"
     stroke="white"
     stroke-width="10"
     id="path2" />
  <circle
     cx="72.0011"
     cy="63.9996"
     r="11"
     stroke="white"
     stroke-width="8"
     id="circle2" />
</svg>

<svg width="102" height="110" viewBox="0 0 102 110" fill="none" xmlns="http://www.w3.org/2000/svg">
<path d="M41.1219 57.285C41.1219 59.1559 41.0019 63.0682 39.019 68.0778C37.1523 72.7938 29.6744 75.0778 24.6841 77.2472C15.6212 81.187 12.2863 83.5274 10.3933 85.9082C7.32478 89.7676 9.982 97.6064 12.1096 100.756C14.0886 103.686 19.6157 103.983 24.5247 104C28.9646 104.015 35.6335 98.2348 42.7275 93.0172C45.1922 91.2044 46.5883 89.5135 47.7727 88.8571C52.9936 85.9637 64.1024 88.6554 67.4452 89.6032C71.3828 90.7196 75.3138 93.0833 80.3646 93.0378C86.1121 92.9859 89.1892 88.5142 91.4869 85.5511C94.6168 81.515 94.7949 78.5054 95.8341 71.8062C96.3564 68.4399 95.6229 65.144 94.0608 61.5213C90.1077 52.354 82.1338 50.1449 76.23 48.1922C74.2547 47.5389 72.7206 46.815 71.329 45.783C70.0287 44.8187 69.4851 43.3402 69.1305 41.5977C68.0374 36.2267 72.0973 29.5731 72.8222 22.8611C73.5731 15.908 64.0307 9.9992 58.0103 7.707C52.4865 5.60386 44.5166 5.9929 37.3963 6.0942C29.6206 6.20482 25.2612 7.47778 21.0774 9.43965C18.4095 10.6907 14.2895 13.952 10.8918 17.12C8.29174 19.5443 6.82609 25.0553 6.11107 29.245C5.68489 31.7423 6.56078 34.0959 7.65052 35.9715C10.4028 40.7085 16.7893 43.593 19.8717 44.7349C24.6474 46.5041 30.0564 46.6557 33.5483 47.9539C35.8734 48.8183 36.9586 51.718 37.587 54.0394C38.3929 57.017 37.2091 61.5799 36.3894 66.0463C35.657 70.0366 33.4386 74.3568 32.9629 76.8676C32.539 79.1051 31.0776 80.9461 28.904 82.6374C26.3464 84.6275 22.9026 85.471 21.4497 87.1551C19.881 88.9733 19.3284 91.1454 19.5272 93.2539C19.6114 94.1474 20.134 94.6126 20.8238 94.9209C21.5136 95.2292 22.4755 95.3486 23.3036 95.2522C28.1028 94.6935 33.9428 86.0882 42.4613 81.0405C47.7316 77.9175 60.587 78.4476 66.1881 78.8058C71.4941 79.1451 79.206 80.7475 82.374 80.3639C83.5484 80.2217 84.2963 78.9629 85.0618 77.9056C88.2587 73.4901 86.7967 65.1336 86.1615 62.5687C85.6902 60.6659 80.9298 58.264 76.0582 57.4457C71.0936 56.6118 76.6881 70.9878 78.8359 79.8048C79.7614 83.6039 79.5774 86.187 79.4661 87.1677C79.4144 87.6238 78.7619 80.7613 78.3694 70.9951C78.0372 62.726 73.0433 54.4299 71.4534 50.6946C71.2559 50.2305 70.4948 50.223 69.9601 50.6644C68.558 51.8222 67.7061 59.626 66.2964 69.1979C65.8267 72.3874 64.9697 72.0415 63.4365 68.4371C59.043 58.1082 56.8277 51.3349 56.4305 52.7034C54.8159 58.2653 51.8034 65.4938 49.6799 68.3136C47.3539 71.4024 44.0124 72.2298 43.8611 73.2471C43.6197 74.8692 48.2986 74.6556 51.4913 75.035C53.9891 75.3318 56.8955 73.5261 59.8713 70.6439C61.897 68.682 62.168 59.3018 62.3584 46.2924C62.4825 37.8182 67.2926 33.441 70.3082 30.3217C70.8376 29.7741 66.4577 28.2624 66.2964 27.7354C65.5213 25.2026 67.2319 22.49 63.8953 19.1092C61.6581 16.8424 54.128 14.9771 46.9058 13.3114C39.974 11.7127 31.8676 15.3103 21.0529 17.6118C16.6713 18.5443 15.1023 20.2062 13.8286 21.958C12.4966 23.79 11.6771 26.5179 12.3263 29.5434C12.6568 31.0839 15.2908 31.2652 17.6686 31.6265C25.0513 32.748 30.7342 28.8671 31.2149 27.7354C31.9537 25.9964 24.5762 26.2921 22.4917 25.1499C15.1425 21.1227 37.6867 19.8832 40.0607 19.7103C47.591 19.1617 50.6263 22.0555 54.0011 24.1136C56.8127 25.8282 57.9015 31.5283 56.8986 36.3708C55.0567 45.2642 51.4516 56.7611 49.0982 59.6328C48.6583 60.1697 47.498 59.1088 46.86 58.3137C46.2219 57.5187 45.8629 56.521 45.7047 51.3269C45.5464 46.1327 45.5996 36.7723 45.2881 31.5039C44.9767 26.2355 44.2989 25.3427 43.6005 24.8153C42.376 23.8905 40.8146 24.0134 39.4536 24.1136C35.312 24.4182 30.729 28.062 26.2133 32.3796C25.2401 33.3101 25.0067 33.8189 24.8542 34.3191C24.7017 34.8193 24.6968 35.3496 25.0471 35.748C27.9838 39.0878 36.1506 38.0417 38.5478 39.7588C39.0792 40.1394 39.1604 40.7565 39.1219 40.011C38.5179 34.499 38.897 30.5814 39.5499 27.6527C39.673 27.084 39.7467 26.493 39.7675 25.8193" stroke="#A5A4B8" stroke-width="12" stroke-linecap="round"/>
<path d="M24.0011 43.5747V19.6497C24.0011 19.6497 32.4105 17.5905 37.8364 17.9997C41.17 18.251 42.9926 18.8411 46.2364 19.6497C47.9856 20.0857 49.0777 20.0679 50.6835 20.8872C52.4748 21.801 53.265 22.7164 54.6364 24.1872C55.48 25.0918 55.954 25.6153 56.6129 26.6622C58.7129 29.9988 58.4171 32.6234 58.5893 36.5622C58.8101 41.6105 56.6129 49.3497 56.6129 49.3497L51.1776 59.2497L42.2835 68.7372L33.8835 75.3372L26.9658 79.8747L24.0011 81.5247V83.9997H66.0011" stroke="white" stroke-width="10"/>
<circle cx="72.0011" cy="63.9996" r="11" stroke="white" stroke-width="8"/>
</svg>
